img/1tag.svg

<svg width="33" height="33" viewBox="0 0 33 33" fill="none" xmlns="http://www.w3.org/2000/svg">
<path fill-rule="evenodd" clip-rule="evenodd" d="M3.25023 1.25443C3.25023 1.04353 3.42846 0.872559 3.64833 0.872559H32.3115C32.5313 0.872559 32.7096 1.04353 32.7096 1.25443V28.8765C32.7096 29.0874 32.5313 29.2584 32.3115 29.2584C32.0916 29.2584 31.9134 29.0874 31.9134 28.8765V1.6363H3.64833C3.42846 1.6363 3.25023 1.46533 3.25023 1.25443Z" fill="white" stroke="white" stroke-width="0.5"/>
<path d="M3.66802 29.4343L3.79302 29.4343L3.79302 29.3093L3.79302 5.55061L5.4189 7.17648C5.62195 7.37954 5.95117 7.37954 6.15423 7.17648C6.35728 6.97342 6.35728 6.6442 6.15423 6.44115L3.64073 3.92765C3.43767 3.72459 3.10845 3.72459 2.9054 3.92765L0.3919 6.44115C0.188843 6.64421 0.188845 6.97342 0.391899 7.17648C0.594957 7.37954 0.924175 7.37954 1.12723 7.17648L2.75311 5.55061L2.75311 29.3093L2.75311 29.4343L2.87811 29.4343L3.66802 29.4343Z" fill="white" stroke="white" stroke-width="0.25"/>
<path d="M2.75212 29.7043V29.8293H2.87712L26.7603 29.8293L25.1261 31.4549C24.922 31.658 24.922 31.9876 25.1261 32.1907C25.3299 32.3935 25.6601 32.3935 25.8639 32.1907L28.3905 29.6772C28.5947 29.4741 28.5947 29.1445 28.3905 28.9414L25.8639 26.4279C25.6601 26.2252 25.3299 26.2252 25.1261 26.4279C24.922 26.6311 24.922 26.9606 25.1261 27.1637L26.7603 28.7894L2.87712 28.7894H2.75212V28.9144V29.7043Z" fill="white" stroke="white" stroke-width="0.25"/>
<path fill-rule="evenodd" clip-rule="evenodd" d="M14.1624 0.988239C14.3167 1.14248 14.3167 1.39255 14.1624 1.54679L9.42294 6.28629C9.2687 6.44053 9.01862 6.44053 8.86438 6.28629C8.71014 6.13205 8.71014 5.88198 8.86438 5.72774L13.6039 0.988239C13.7581 0.833998 14.0082 0.833998 14.1624 0.988239Z" fill="white" stroke="white" stroke-width="0.5" stroke-linecap="round" stroke-linejoin="round"/>
<path fill-rule="evenodd" clip-rule="evenodd" d="M32.4622 19.8147C32.6164 19.9689 32.6164 20.219 32.4622 20.3732L28.1177 24.7177C27.9634 24.872 27.7133 24.872 27.5591 24.7177C27.4049 24.5635 27.4049 24.3134 27.5591 24.1592L31.9036 19.8147C32.0579 19.6604 32.308 19.6604 32.4622 19.8147Z" fill="white" stroke="white" stroke-width="0.5" stroke-linecap="round" stroke-linejoin="round"/>
<path fill-rule="evenodd" clip-rule="evenodd" d="M20.085 0.986466C20.2402 1.13972 20.2418 1.38979 20.0885 1.54501L9.81964 11.9456C9.66638 12.1008 9.41632 12.1024 9.2611 11.9491C9.10588 11.7959 9.10428 11.5458 9.25754 11.3906L19.5264 0.990024C19.6797 0.834804 19.9298 0.833211 20.085 0.986466Z" fill="white" stroke="white" stroke-width="0.5" stroke-linecap="round" stroke-linejoin="round"/>
<path fill-rule="evenodd" clip-rule="evenodd" d="M32.5938 13.2314C32.748 13.3856 32.748 13.6357 32.5938 13.79L22.5882 23.7956C22.434 23.9498 22.1839 23.9498 22.0296 23.7956C21.8754 23.6413 21.8754 23.3912 22.0296 23.237L32.0352 13.2314C32.1895 13.0772 32.4396 13.0772 32.5938 13.2314Z" fill="white" stroke="white" stroke-width="0.5" stroke-linecap="round" stroke-linejoin="round"/>
<path fill-rule="evenodd" clip-rule="evenodd" d="M26.4084 1.1216C26.5614 1.27708 26.5594 1.52715 26.4039 1.68014L9.94729 17.8734C9.79181 18.0264 9.54174 18.0244 9.38875 17.8689C9.23576 17.7134 9.23778 17.4634 9.39326 17.3104L25.8498 1.1171C26.0053 0.964108 26.2554 0.966124 26.4084 1.1216Z" fill="white" stroke="white" stroke-width="0.5" stroke-linecap="round" stroke-linejoin="round"/>
<path fill-rule="evenodd" clip-rule="evenodd" d="M32.5939 7.04415C32.7481 7.19839 32.7481 7.44846 32.5939 7.6027L16.0056 24.1909C15.8514 24.3452 15.6013 24.3452 15.4471 24.1909C15.2928 24.0367 15.2928 23.7866 15.4471 23.6324L32.0353 7.04415C32.1896 6.88991 32.4396 6.88991 32.5939 7.04415Z" fill="white" stroke="white" stroke-width="0.5" stroke-linecap="round" stroke-linejoin="round"/>
<path fill-rule="evenodd" clip-rule="evenodd" d="M32.3306 1.11934C32.4848 1.27358 32.4848 1.52366 32.3306 1.6779L9.68631 24.3222C9.53206 24.4764 9.28199 24.4764 9.12775 24.3222C8.97351 24.1679 8.97351 23.9178 9.12775 23.7636L31.772 1.11934C31.9263 0.965102 32.1763 0.965102 32.3306 1.11934Z" fill="white" stroke="white" stroke-width="0.5" stroke-linecap="round" stroke-linejoin="round"/>
</svg>

<svg width="33" height="33" fill="none" xmlns="http://www.w3.org/2000/svg"><path fill-rule="evenodd" clip-rule="evenodd" d="M3.25 1.254a.39.39 0 0 1 .398-.381h28.664a.39.39 0 0 1 .398.381v27.623a.39.39 0 0 1-.398.381.39.39 0 0 1-.399-.381V1.637H3.648a.39.39 0 0 1-.398-.383Z" fill="#fff" stroke="#fff" stroke-width=".5" stroke-linecap="round" stroke-linejoin="round"/><path d="M3.668 29.435h.125V5.55L5.42 7.177a.52.52 0 1 0 .735-.735L3.641 3.928a.52.52 0 0 0-.736 0L.392 6.442a.52.52 0 1 0 .735.735l1.626-1.626v23.884h.915Z" fill="#fff" stroke="#fff" stroke-width=".25"/><path d="M2.752 29.704v.125H26.76l-1.634 1.626a.518.518 0 0 0 0 .736.524.524 0 0 0 .738 0l2.527-2.514a.519.519 0 0 0 0-.736l-2.527-2.513a.523.523 0 0 0-.738 0 .518.518 0 0 0 0 .735l1.634 1.626H2.752v.915Z" fill="#fff" stroke="#fff" stroke-width=".25"/><path fill-rule="evenodd" clip-rule="evenodd" d="M14.162.988a.395.395 0 0 1 0 .559l-4.74 4.74a.395.395 0 1 1-.558-.56l4.74-4.739a.395.395 0 0 1 .558 0ZM32.462 19.815a.395.395 0 0 1 0 .558l-4.344 4.345a.395.395 0 0 1-.559-.559l4.345-4.344a.395.395 0 0 1 .558 0ZM20.085.986a.395.395 0 0 1 .004.559l-10.27 10.4a.395.395 0 0 1-.561-.554L19.526.99a.395.395 0 0 1 .56-.004ZM32.594 13.232a.395.395 0 0 1 0 .558L22.588 23.796a.395.395 0 0 1-.558-.559l10.005-10.005a.395.395 0 0 1 .559 0ZM26.408 1.122a.395.395 0 0 1-.004.559L9.947 17.874a.395.395 0 1 1-.554-.563L25.85 1.118a.395.395 0 0 1 .558.004ZM32.594 7.044a.395.395 0 0 1 0 .559L16.006 24.19a.395.395 0 0 1-.559-.558L32.035 7.044a.395.395 0 0 1 .559 0ZM32.33 1.12a.395.395 0 0 1 0 .558L9.687 24.323a.395.395 0 1 1-.558-.559L31.772 1.12a.395.395 0 0 1 .559 0Z" fill="#fff" stroke="#fff" stroke-width=".5" stroke-linecap="round" stroke-linejoin="round"/></svg>
